!!!OTL: 1575. Des Fuhrmanns Lust.
!!!ODT: 1836
!!!ARE: Europa, Mitteleuropa, Deutschland, Bergisches Land
!!!SCT: E1575A
!!!YEM: Copyright 1995, estate of Helmut Schaffrath.
**kern	**text
*ICvox	*
*M3/4	*
*k[b-]	*
*F:	*
=1	=1
!LO:TX:a:t=Lustig.	!
!LO:TX:a:t=Bergiſch 1836.	!
{4a	Sitʒt
4a	ein
4a	ſöns
=2	=2
(8aq	.
4.cc)	Vö-
8b-	-gel
4a	im
=3	=3
4cc	Tan-
4ff	-nen-
4cc}	-wald_et.
=4||	=4||
{4a	(ſ. Str. 3)
4a	.
4a	.
=5	=5
(8aq	.
4.cc)	.
8b-	.
4a	.
=6	=6
2cc	.
4r}	.
=7||	=7||
{4cc	.
4ff	.
4a	.
=8	=8
4cc	.
4b-	.
4b-	.
=9	=9
4b-	.
4dd	.
4g	.
=10	=10
4b-	.
4a	.
4a}	.
=11||	=11||
{4a	.
4a	.
4a	.
=12	=12
(8aq	.
4.cc)	.
8b-	.
4a	.
=13	=13
4cc	.
4ff	.
4cc;}	.
=14||	=14||
{4a	.
4a	.
4a	.
=15	=15
(8aq	.
4.cc)	.
8b-	.
4b-	.
=16	=16
2a	.
4r}	.
=17	=17
{4cc	.
4ff	.
4a	.
=18	=18
4cc	.
4b-	.
4b-	.
=19	=19
4b-	.
4dd	.
4g	.
=20	=20
4b-	.
4a	.
4a}	.
=21||	=21||
{4a	.
4a	.
4a	.
=22	=22
(8aq	.
4.cc)	.
8b-	.
4a	.
=23	=23
4cc	.
4ff	.
4cc;}	.
=24	=24
{4a	.
4a	.
4a	.
=25	=25
(8aq	.
4.cc)	.
8b-	.
4b-	.
=26	=26
2a	.
4r}	.
==	==
!!!AGN: Staende - Lied, Fuhrmann
!!!ONB: ESAC (Essen Associative Code) Database: ERK3
!!!AMT: simple triple
!!!AIN: vox
!!!EED: Helmut Schaffrath
!!!EEV: 1.0
!!!GTL: Staendelieder (Berufslieder). 7. Auf andere Beschaeftigungen im Freien [Fuhrleute, Postillons, Nachtwaechter, Bettler, Gauner und Strassenraeuber].
!!!URL-scan: https://rosdok.uni-rostock.de/mcrviewer/recordIdentifier/rosdok_ppn745177999/iview2/phys_0409.iview2?x=-26.146080608596776&y=602.3577646564227&scale=0.6468447934588498&rotation=0&layout=singlePageLayout
!!!ENC: Anna Maria Matuszewska
!!!EEV: 2025/08/01
*-	*-
